packages/seti-ui/icons/rails.svg

<svg xmlns="http://www.w3.org/2000/svg" viewBox="0 0 32 32"><path fill="#CD3F45" d="M24.4 10.8c-.7-.7-1.6-1.2-2.5-1.6-1.1-.5-2.2-.7-3.4-.5-1.2.2-2.3.6-3.2 1.3-1 .7-1.8 1.5-2.4 2.5-.4.6-.7 1.2-1.1 1.9-.5 1-1 2.1-1.4 3.2-.4 1.2-.7 2.5-.9 3.7-.1.9-.2 1.8-.2 2.7v.5h8.3c-.4-1.1-.8-2.2-1-3.3-.2-.8-.3-1.6-.4-2.4v-1.6c0-.7.1-1.4.4-2 .6-1.9 1.8-3.2 3.6-4.1.7-.3 1.4-.5 2.2-.4.7.1 1.3.4 1.8.8.1-.3.2-.5.2-.7.1 0 .1 0 0 0zM7.7 20.2c-.1.5-.1 1-.2 1.6.5.1 1 .1 1.5.2.1-.5.2-1.1.3-1.6-.6-.1-1.1-.2-1.6-.2zm3-4.7c-.5-.2-1-.4-1.4-.6-.2.4-.3.9-.5 1.3.5.2 1 .3 1.5.5.1-.4.2-.8.4-1.2zm7.7 6.3c0-.1 0-.1 0 0-.5-.1-.9-.1-1.3-.1H17v.1c.1.3.2.7.3 1 0 .1.1.1.1.1.5 0 1 .1 1.4.1h.1v-.1c-.1-.4-.3-.8-.5-1.1zm-5.3-10.3c-.4-.2-.7-.5-1.1-.7-.3.3-.6.6-.9 1 .4.3.8.5 1.1.8.3-.4.6-.7.9-1.1zm3.5 7.4c.5.2.9.4 1.2.6h.1v-.1c0-.3 0-.6-.1-.9 0 0 0-.1-.1-.1-.4-.2-.7-.4-1.1-.6h-.1c.1.4.1.7.1 1.1zM16.3 9c-.2-.3-.5-.5-.7-.8h-.1c-.3.2-.6.3-.9.5.1.3.4.6.6.9.4-.2.7-.4 1.1-.6zm.4 6.8c.4.3.7.6 1.1.9.1-.3.2-.6.2-1v-.1l-.1-.1c-.2-.2-.5-.4-.7-.6-.3.3-.4.6-.5.9zm2.9-7.3s0-.1 0 0c0-.3-.1-.5-.1-.7 0-.1 0-.1-.1-.1h-1.2c.1.3.1.6.2.9.4-.1.8-.1 1.2-.1zm-.7 4.9v-.1c-.2-.3-.4-.6-.6-.8v-.1c-.2.2-.4.4-.7.6.3.3.6.7.9 1 .2-.2.3-.4.4-.6zm1.6-2.2c-.3.1-.6.1-.9.2.1.3.3.5.4.8.2-.2.4-.3.6-.4 0-.3-.1-.5-.1-.6zm2-2c.3.2.6.3.8.5.1-.1.1-.2.2-.3-.3-.2-.7-.5-1-.7v.5c0-.1 0 0 0 0zm.6 2c-.2 0-.4-.1-.6-.1h-.2v.5c.3 0 .6.1.8.1.1-.3.1-.4 0-.5.1 0 0 0 0 0z"/></svg>

<?xml version="1.0" encoding="utf-8"?>
<!-- Generator: Adobe Illustrator 18.1.1, SVG Export Plug-In . SVG Version: 6.00 Build 0)  -->
<svg version="1.1" id="Layer_1" xmlns="http://www.w3.org/2000/svg" xmlns:xlink="http://www.w3.org/1999/xlink" x="0px" y="0px"
	 viewBox="0 0 32 32" enable-background="new 0 0 32 32" xml:space="preserve">
<path fill="#CD3F45" d="M24.4,10.8c-0.7-0.7-1.6-1.2-2.5-1.6c-1.1-0.5-2.2-0.7-3.4-0.5c-1.2,0.2-2.3,0.6-3.2,1.3
	c-1,0.7-1.8,1.5-2.4,2.5c-0.4,0.6-0.7,1.2-1.1,1.9c-0.5,1-1,2.1-1.4,3.2c-0.4,1.2-0.7,2.5-0.9,3.7c-0.1,0.9-0.2,1.8-0.2,2.7
	c0,0.2,0,0.3,0,0.5c2.8,0,5.6,0,8.3,0c0,0,0,0,0,0c-0.4-1.1-0.8-2.2-1-3.3c-0.2-0.8-0.3-1.6-0.4-2.4c0-0.5,0-1.1,0-1.6
	c0-0.7,0.1-1.4,0.4-2c0.6-1.9,1.8-3.2,3.6-4.1c0.7-0.3,1.4-0.5,2.2-0.4c0.7,0.1,1.3,0.4,1.8,0.8c0,0,0,0,0,0
	C24.3,11.2,24.4,11,24.4,10.8C24.5,10.8,24.5,10.8,24.4,10.8L24.4,10.8z M7.7,20.2c-0.1,0.5-0.1,1-0.2,1.6c0.5,0.1,1,0.1,1.5,0.2
	c0.1-0.5,0.2-1.1,0.3-1.6C8.7,20.3,8.2,20.2,7.7,20.2L7.7,20.2z M10.7,15.5c-0.5-0.2-1-0.4-1.4-0.6c-0.2,0.4-0.3,0.9-0.5,1.3
	c0.5,0.2,1,0.3,1.5,0.5C10.4,16.3,10.5,15.9,10.7,15.5L10.7,15.5z M18.4,21.8C18.4,21.7,18.4,21.7,18.4,21.8
	c-0.5-0.1-0.9-0.1-1.3-0.1c0,0,0,0-0.1,0c0,0,0,0,0,0.1c0.1,0.3,0.2,0.7,0.3,1c0,0.1,0.1,0.1,0.1,0.1c0.5,0,1,0.1,1.4,0.1
	c0,0,0.1,0,0.1,0c0,0,0,0,0-0.1C18.8,22.5,18.6,22.1,18.4,21.8L18.4,21.8z M13.1,11.5c-0.4-0.2-0.7-0.5-1.1-0.7
	c-0.3,0.3-0.6,0.6-0.9,1c0.4,0.3,0.8,0.5,1.1,0.8C12.5,12.2,12.8,11.9,13.1,11.5z M16.6,18.9C16.6,18.9,16.6,18.9,16.6,18.9
	c0.5,0.2,0.9,0.4,1.2,0.6c0,0,0,0,0.1,0c0,0,0-0.1,0-0.1c0-0.3,0-0.6-0.1-0.9c0,0,0-0.1-0.1-0.1c-0.4-0.2-0.7-0.4-1.1-0.6
	c0,0,0,0-0.1,0C16.6,18.2,16.6,18.5,16.6,18.9L16.6,18.9z M16.3,9c-0.2-0.3-0.5-0.5-0.7-0.8c0,0-0.1,0-0.1,0
	c-0.3,0.2-0.6,0.3-0.9,0.5c0,0,0,0,0,0C14.7,9,15,9.3,15.2,9.6C15.6,9.4,15.9,9.2,16.3,9L16.3,9z M16.7,15.8
	c0.4,0.3,0.7,0.6,1.1,0.9c0,0,0,0,0,0c0.1-0.3,0.2-0.6,0.2-1c0,0,0-0.1,0-0.1c0,0-0.1-0.1-0.1-0.1c-0.2-0.2-0.5-0.4-0.7-0.6
	C16.9,15.2,16.8,15.5,16.7,15.8z M19.6,8.5C19.6,8.5,19.6,8.4,19.6,8.5c0-0.3-0.1-0.5-0.1-0.7c0-0.1,0-0.1-0.1-0.1
	c-0.3,0-0.5,0-0.8,0c-0.1,0-0.3,0-0.4,0c0.1,0.3,0.1,0.6,0.2,0.9C18.8,8.5,19.2,8.5,19.6,8.5L19.6,8.5z M18.9,13.4c0,0,0-0.1,0-0.1
	c-0.2-0.3-0.4-0.6-0.6-0.8c0,0,0,0,0-0.1c-0.2,0.2-0.4,0.4-0.7,0.6c0.3,0.3,0.6,0.7,0.9,1C18.7,13.8,18.8,13.6,18.9,13.4L18.9,13.4z
	 M20.5,11.2c-0.3,0.1-0.6,0.1-0.9,0.2c0.1,0.3,0.3,0.5,0.4,0.8c0.2-0.2,0.4-0.3,0.6-0.4c0,0,0,0,0,0C20.6,11.5,20.5,11.3,20.5,11.2z
	 M22.5,9.2c0.3,0.2,0.6,0.3,0.8,0.5c0.1-0.1,0.1-0.2,0.2-0.3c-0.3-0.2-0.7-0.5-1-0.7c0,0,0,0,0,0C22.5,8.8,22.5,9,22.5,9.2
	C22.5,9.1,22.5,9.2,22.5,9.2L22.5,9.2z M23.1,11.2c-0.2,0-0.4-0.1-0.6-0.1c-0.1,0-0.1,0-0.2,0c0,0.2,0,0.3,0,0.5
	c0.3,0,0.6,0.1,0.8,0.1C23.2,11.4,23.2,11.3,23.1,11.2C23.2,11.2,23.1,11.2,23.1,11.2L23.1,11.2z"/>
</svg>
